img/thunderstorm.svg

<svg width="512" height="512" viewBox="0 0 512 512" xmlns="http://www.w3.org/2000/svg"><title>thunderstorm</title><path d="M192 384l32 32-32 96 96-96-32-32 32-64-96 64zm320-249.167c0-49.146-40-89.124-89.167-89.124-2.396 0-4.77.082-7.146.27C392.562 17.145 357.71 0 320 0c-37.688 0-72.562 17.146-95.688 45.98a91.556 91.556 0 0 0-7.188-.27C168 45.71 128 85.687 128 134.832c0 5.146.688 10.125 1.5 15.042-.542.708-1.188 1.354-1.708 2.083A110.94 110.94 0 0 0 112 150.833c-61.75 0-112 50.25-112 112s50.25 112 112 112c13.688 0 27.084-2.5 39.71-7.333 1.103.96 2.415 1.625 3.54 2.562l28.312-18.875c-9.438-6.688-18.25-14.125-25.625-23-13 9.146-28.812 14.646-45.938 14.646-44.19 0-80-35.79-80-80 0-44.167 35.81-80 80-80 10.81 0 21.06 2.21 30.437 6.083.562-1.083 1.25-2 1.812-3.042a130.207 130.207 0 0 1 20.665-28.042c23.084-23.896 55.167-39 91.084-39 49.708 0 92.333 28.667 113.54 70.083 5.646-2.333 11.668-3.833 17.875-4.833l12.584-1.25c12.333 0 23.874 3.042 34.31 8 11.313 5.417 21.022 13.375 28.647 23.208 10.5 13.52 17.042 30.334 17.042 48.792 0 44.21-35.813 80-80 80-17.126 0-32.917-5.5-45.94-14.646-14 16.875-32.437 29.562-53.145 37.562l-5.98 11.938 18.25 18.25c17.063-6.646 33.022-16.188 47.105-28.438A110.804 110.804 0 0 0 400 374.83c61.75 0 112-50.248 112-112 0-25.665-9.043-49.082-23.667-68C502.916 178.96 512 158.02 512 134.834zm-46.438 37.625c-18.48-13.438-41-21.625-65.562-21.625-5.312 0-10.562.375-15.792 1.125C354.334 111.27 307.188 86.833 256 86.833c-34.125 0-66.312 11.062-92.938 30.354 7.48-22.853 28.73-39.478 54.062-39.478a56.58 56.58 0 0 1 21.75 4.332C254.062 52.458 284.5 32 320 32c35.5 0 65.958 20.458 81.084 50.042 6.73-2.77 14.083-4.333 21.75-4.333 31.583 0 57.166 25.582 57.166 57.123 0 14.5-5.562 27.563-14.438 37.625z" fill="#D1D7BF" fill-rule="evenodd"/></svg>

<?xml version="1.0" encoding="UTF-8" standalone="no"?>
<svg width="512px" height="512px" viewBox="0 0 512 512" version="1.1" xmlns="http://www.w3.org/2000/svg" xmlns:xlink="http://www.w3.org/1999/xlink">
    <!-- Generator: Sketch 41.2 (35397) - http://www.bohemiancoding.com/sketch -->
    <title>thunderstorm</title>
    <desc>Created with Sketch.</desc>
    <defs></defs>
    <g id="Page-1" stroke="none" stroke-width="1" fill="none" fill-rule="evenodd">
        <g id="thunderstorm" fill="#1D1D1B">
            <path d="M192,384 L224,416 L192,512 L288,416 L256,384 L288,320 L192,384 Z M512,134.833 C512,85.687 472,45.709 422.833,45.709 C420.437,45.709 418.062,45.792 415.687,45.979 C392.562,17.146 357.709,0 320,0 C282.312,0 247.438,17.146 224.312,45.979 C221.937,45.792 219.541,45.709 217.124,45.709 C168,45.709 128,85.688 128,134.833 C128,139.979 128.688,144.958 129.5,149.875 C128.958,150.583 128.312,151.229 127.792,151.958 C122.563,151.208 117.313,150.833 112,150.833 C50.25,150.833 0,201.083 0,262.833 C0,324.584 50.25,374.833 112,374.833 C125.688,374.833 139.084,372.334 151.709,367.5 C152.813,368.459 154.125,369.125 155.25,370.062 L183.562,351.187 C174.124,344.499 165.312,337.062 157.937,328.187 C144.937,337.333 129.125,342.833 111.999,342.833 C67.811,342.833 31.999,307.042 31.999,262.833 C31.999,218.666 67.811,182.833 111.999,182.833 C122.811,182.833 133.061,185.042 142.437,188.916 C142.999,187.833 143.687,186.916 144.249,185.874 C149.874,175.603 156.811,166.207 164.915,157.832 C187.999,133.936 220.082,118.832 255.999,118.832 C305.708,118.832 348.333,147.499 369.54,188.915 C375.186,186.582 381.208,185.082 387.415,184.082 L399.999,182.832 C412.333,182.832 423.874,185.874 434.311,190.832 C445.623,196.249 455.332,204.207 462.957,214.04 C473.457,227.561 479.999,244.374 479.999,262.832 C479.999,307.041 444.187,342.832 399.999,342.832 C382.874,342.832 367.083,337.332 354.061,328.186 C340.061,345.061 321.623,357.748 300.915,365.748 L294.936,377.686 L313.186,395.936 C330.248,389.29 346.207,379.748 360.29,367.498 C372.915,372.332 386.311,374.831 399.999,374.831 C461.749,374.831 511.999,324.582 511.999,262.831 C511.999,237.165 502.957,213.748 488.333,194.831 C502.916,178.958 512,158.021 512,134.833 Z M465.562,172.458 C447.083,159.02 424.562,150.833 400,150.833 C394.688,150.833 389.438,151.208 384.208,151.958 C354.334,111.271 307.188,86.833 256,86.833 C221.875,86.833 189.688,97.895 163.062,117.187 C170.541,94.334 191.791,77.709 217.124,77.709 C224.874,77.709 232.186,79.271 238.874,82.042 C254.062,52.458 284.5,32 320,32 C355.5,32 385.958,52.458 401.084,82.042 C407.813,79.271 415.167,77.709 422.833,77.709 C454.417,77.709 480,103.292 480,134.833 C480,149.333 474.438,162.396 465.562,172.458 Z" id="Shape"></path>
        </g>
    </g>
</svg>
